svg/ip_network.svg

<svg xmlns="http://www.w3.org/2000/svg" viewBox="0 0 24 24"><path d="M15 9h-2V7h2zm7 11v2h-7a1 1 0 0 1-1 1h-4a1 1 0 0 1-1-1H2v-2h7a1 1 0 0 1 1-1h1v-2H7a2 2 0 0 1-2-2V5a2 2 0 0 1 2-2h10a2 2 0 0 1 2 2v10a2 2 0 0 1-2 2h-4v2h1a1 1 0 0 1 1 1zM9 5H7v10h2zm2 10h2v-4h2a2 2 0 0 0 2-2V7a2 2 0 0 0-2-2h-4z"/></svg>

<?xml version="1.0" encoding="UTF-8"?><!DOCTYPE svg PUBLIC "-//W3C//DTD SVG 1.1//EN" "http://www.w3.org/Graphics/SVG/1.1/DTD/svg11.dtd"><svg xmlns="http://www.w3.org/2000/svg" xmlns:xlink="http://www.w3.org/1999/xlink" version="1.1" id="mdi-ip-network" width="24" height="24" viewBox="0 0 24 24"><path d="M15,9H13V7H15V9M22,20V22H15A1,1 0 0,1 14,23H10A1,1 0 0,1 9,22H2V20H9A1,1 0 0,1 10,19H11V17H7A2,2 0 0,1 5,15V5A2,2 0 0,1 7,3H17A2,2 0 0,1 19,5V15A2,2 0 0,1 17,17H13V19H14A1,1 0 0,1 15,20H22M9,5H7V15H9V5M11,15H13V11H15A2,2 0 0,0 17,9V7A2,2 0 0,0 15,5H11V15Z" /></svg>
